packages/bezier-icons/icons/squares-filled.svg

<svg width="24" height="24" viewBox="0 0 24 24" fill="none" xmlns="http://www.w3.org/2000/svg">
<path d="M6 7C4.34315 7 3 8.34315 3 10V18C3 19.6569 4.34315 21 6 21H14C15.6569 21 17 19.6569 17 18H10C7.79086 18 6 16.2091 6 14V7Z" fill="#313234"/>
<path d="M7 6C7 4.34315 8.34315 3 10 3H18C19.6569 3 21 4.34315 21 6V14C21 15.6569 19.6569 17 18 17H10C8.34315 17 7 15.6569 7 14V6Z" fill="#313234"/>
</svg>

<svg xmlns="http://www.w3.org/2000/svg" width="24" height="24" fill="none" viewBox="0 0 24 24"><path fill="#313234" d="M6 7a3 3 0 0 0-3 3v8a3 3 0 0 0 3 3h8a3 3 0 0 0 3-3h-7a4 4 0 0 1-4-4z"/><path fill="#313234" d="M7 6a3 3 0 0 1 3-3h8a3 3 0 0 1 3 3v8a3 3 0 0 1-3 3h-8a3 3 0 0 1-3-3z"/></svg>
